X: 17995
T: Hughie Travers'
R: reel
M: 4/4
K: Gmajor
ge|dBBA B2 GB|dBGB AGED|G2 Bd gbaf|gedB A2 ge|
dBBA B2 GB|dBGB AGED|G2 Bd gbaf|gedB G2:|
GA|Bd (3d^cd edBd|edgd edgd|(3Bcd ef gbaf|gedB A2 GA|
Bd (3d^cd edBd|edgd edBA|(3Bcd ef gbaf|gedB G2:|

